!!!COM: Bach, Johann Sebastian
!!!OTL@@DE: 357. Warum sollt' ich mich denn gr&auml;men
!!!OTL@EN: Why should I then grieve?
!!!SCA: BWV 422
**kern	**kern	**kern	**kern
*staff2	*staff2	*staff1	*staff1
*Iorgan	*Iorgan	*Iorgan	*Iorgan
!bass	!tenor	!alto	!sprno
*clefF4	*clefF4	*clefG2	*clefG2
*k[]	*k[]	*k[]	*k[]
*met(C)	*met(C)	*met(C)	*met(C)
*M4/4	*M4/4	*M4/4	*M4/4
*MM60	*MM60	*MM60	*MM60
=1-	=1-	=1-	=1-
8C\L	4c/	8e\L	4g/
8D\J	.	8f\J	.
8E\L	4c/	8g\L	4g/
8C\J	.	[8e\J	.
4.F\	4c/	8e\L]	4a/
.	.	[8d\J	.
.	8B/L	8d\L]	4g/
8E\	8c/J	8g\J	.
=2	=2	=2	=2
4D\	4f/	4f\	8a/L
.	.	.	8b/J
8E\L	4e/	4g\	4cc/
8F\J	.	.	.
2G\	8d/L	2g\	4cc/
.	8e/J	.	.
.	8f/L	.	4b/
.	16g/L	.	.
.	16f/JJ	.	.
=3	=3	=3	=3
2C;\	2e;/	2g;\	2cc;/
4G\	4B/	8g\L	4dd/
.	.	8f\J	.
4G#\	4B/	4e\	4ee/
=4	=4	=4	=4
2A;\	2A;/	2e;\	2cc;/
4E\	4G/	4e\	8b/L
.	.	.	8cc/J
8BB\L	4G/	4d\	4dd/
8C\J	.	.	.
=5	=5	=5	=5
2D;\	2F#;/	2d;\	2a;/
4BB\	4F#/	4d\	4dd/
[4E\	[4G/	4e\	4dd/
=6	=6	=6	=6
8E\L]	8G/L]	8e\	4cc/
8F#\J	8A/J	4d\	.
8G\L	8B/L	.	4b/
8BB\J	8d/J	8g\	.
8C\L	4e/	4g\	4a/
8AA\J	.	.	.
4D\	16A/LL	4f#\	8.a/L
.	16B/J	.	.
.	8c/J	.	.
.	.	.	16g/Jk
=7	=7	=7	=7
!!linebreak: 2
2GG;\	2B;/	2d;\	2g;/
8E\L	4G/	8g\L	4cc/
8D\J	.	8f#\J	.
8E\L	4e/	8g\L	4cc/
8F#\J	.	8a\J	.
=8	=8	=8	=8
8G\L	4d/	4g\	4b/
8Fn\J	.	.	.
8E\L	4c/	2g\	4cc/
8C\J	.	.	.
8F\L	4c/	.	4a/
8E\J	.	.	.
8F\L	4A/	4f\	4dd/
8D\J	.	.	.
=9	=9	=9	=9
8G\L	4B-/	2e\	4dd/
8E\J	.	.	.
8A\L	4A/	.	4cc#/
8AA\J	.	.	.
2D;\	2A;/	2f#;\	2dd;/
=10	=10	=10	=10
4G\	4Bn/	4g\	4dd/
4C\	8B-/L	4g\	4ee/
.	16c/L	.	.
.	16B-/JJ	.	.
2F;\	2A;/	2fn;\	2cc;/
=11	=11	=11	=11
8F\L	4G/	8d\L	8b/L
8E\J	.	8e\J	8cc/J
8BB\L	4G/	8d\L	4dd/
8C\J	.	8e\J	.
2D;\	2d;/	2f#;\	2a;/
=12	=12	=12	=12
4BB\	8d/L	4f#\	4dd/
.	8c/J	.	.
4E\	4B/	8g\L	4dd/
.	.	8f#\J	.
4AA\	4c/	8e\L	4cc/
.	.	8f#\J	.
8BB\L	4d/	4g\	8b/L
8C\J	.	.	8a/J
=13	=13	=13	=13
2D\	4d/	4g\	4a/
.	16A/LL	4f#\	8.a/L
.	16B/J	.	.
.	8c/J	.	.
.	.	.	16g/Jk
2GG;\	2B;/	2d;\	2g;/
==	==	==	==
*-	*-	*-	*-
!!!ENC: Craig Stuart Sapp
!!!END: 2004/12/06/
!!chor2scor: -l 2 -s 0.6 -o %b.pmx
